static/images/navpool-logo.svg

<svg height="1074" viewBox="0 0 1074 1074" width="1074" xmlns="http://www.w3.org/2000/svg" xmlns:xlink="http://www.w3.org/1999/xlink"><linearGradient id="a" x1="85.0995%" x2="15.512071%" y1="23.760352%" y2="76.010278%"><stop offset="0" stop-color="#0a87f5"/><stop offset="1" stop-color="#dc1eb9"/></linearGradient><g fill="none" fill-rule="evenodd" transform="translate(24 25)"><rect fill="#fff" height="1024" rx="512" width="1024" x="1"/><path d="m.99067671 512.375 18.06215419 10.927931c21.5297353 13.025881 49.0328193 10.513189 67.8457273-6.19841l.6419357-.570235c18.4125971-16.356002 45.3544071-18.750463 66.3629131-5.898023l10.181663 6.228868c15.924988 9.74248 35.405156 11.749483 52.982027 5.458632l11.456115-4.100202c10.813234-3.870111 22.21234-5.848561 33.697278-5.848561h493.121261c13.878034 0 27.604139-2.888665 40.305009-8.482208l7.278034-3.205292c16.350271-7.200762 35.33177-4.861805 49.444889 6.092747l4.967834 3.856016c17.085264 13.26152 40.194223 15.738903 59.702315 6.400354l7.403126-3.543887c18.903985-9.049363 40.173411-11.93052 60.80362-8.236459l39.755942 7.118729c-33.796909 236.237953-165.227061 406.77962-394.290454 511.625-385.847758 3-118.212066-7.783-441.44218-89.782996-126.4027451-190.081701-189.16248166-330.695703-188.27920929-421.842004z" fill="#0a87f5" fill-opacity=".35" fill-rule="nonzero"/><rect height="1024" rx="512" stroke="#e6e6e6" stroke-width="50" width="1024" x="1"/><path d="m674.125 290c12.99375 0 23.53725 11.026125 23.746821 23.981822l.003179.393178v173.75c0 .276142.223858.5.5.5h36.625c13.254834 0 24 10.745166 24 24s-10.745166 24-24 24h-36.625c-.276142 0-.5.223858-.5.5v172.25c0 12.99375-9.188438 22.924688-22.107381 23.122007l-.392619.002993h-2.5c-10.458984 0-17.889862-6.056213-25.273426-14.591689l-.351574-.408311-141.29086-180.683001c-.094764-.121184-.240036-.191999-.393873-.191999h-129.065267c-.276142 0-.5.223858-.5.5v172.25c0 12.99375-10.413563 24.149813-23.963445 24.375h-.411555c-12.99375 0-23.53725-11.026125-23.746821-23.981822l-.003179-.393178v-172.25c0-.276142-.223858-.5-.5-.5h-36.375c-13.254834 0-24-10.745166-24-24s10.745166-24 24-24h36.375c.276142 0 .5-.223858.5-.5v-172.5c0-12.99375 11.026125-24.149812 23.981822-24.371634l.393178-.003366h6.875c10.903846 0 17.697781 5.284172 24.365257 13.576256l.634743.798744 143.345859 182.808525c.09478.120874.239859.191475.393461.191475h121.38568c.276142 0 .5-.223858.5-.5v-173.75c0-12.99375 10.413562-24.149812 23.963445-24.375zm-24.875 246.625h-82.962549c-.276143 0-.5.223858-.5.5 0 .111864.037512.220497.106538.308525l82.962549 105.802044c.170394.217303.484684.255331.701987.084937.120874-.094781.191475-.239859.191475-.393462v-105.802044c0-.276142-.223858-.5-.5-.5zm-273.25-164.548915v116.048915c0 .276142.223858.5.5.5h90.748285c.276142 0 .5-.223858.5-.5 0-.111636-.03736-.220061-.106128-.308001l-90.748285-116.048915c-.170104-.21753-.484344-.255976-.701873-.085871-.121184.094763-.191999.240036-.191999.393872z" fill="url(#a)" fill-rule="nonzero"/></g></svg>

<?xml version="1.0" encoding="UTF-8"?>
<svg width="1074px" height="1074px" viewBox="0 0 1074 1074" version="1.1" xmlns="http://www.w3.org/2000/svg" xmlns:xlink="http://www.w3.org/1999/xlink">
    <!-- Generator: Sketch 63.1 (92452) - https://sketch.com -->
    <title>N</title>
    <desc>Created with Sketch.</desc>
    <defs>
        <linearGradient x1="85.0995%" y1="23.7603521%" x2="15.5120713%" y2="76.010278%" id="linearGradient-1">
            <stop stop-color="#0A87F5" offset="0%"></stop>
            <stop stop-color="#DC1EB9" offset="100%"></stop>
        </linearGradient>
    </defs>
    <g id="Final" stroke="none" stroke-width="1" fill="none" fill-rule="evenodd">
        <g id="Artboard" transform="translate(-2.000000, -1.000000)">
            <g id="N" transform="translate(26.000000, 26.000000)">
                <rect id="Background" fill="#FFFFFF" x="1" y="0" width="1024" height="1024" rx="512"></rect>
                <path d="M0.990676705,512.375 L19.0528309,523.302931 C40.5825662,536.328812 68.0856502,533.81612 86.8985582,517.104521 L87.5404939,516.534286 C105.953091,500.178284 132.894901,497.783823 153.903407,510.636263 L164.08507,516.865131 C180.010058,526.607611 199.490226,528.614614 217.067097,522.323763 L228.523212,518.223561 C239.336446,514.35345 250.735552,512.375 262.22049,512.375 L755.341751,512.375 C769.219785,512.375 782.94589,509.486335 795.64676,503.892792 L802.924794,500.6875 C819.275065,493.486738 838.256564,495.825695 852.369683,506.780247 L857.337517,510.636263 C874.422781,523.897783 897.53174,526.375166 917.039832,517.036617 L924.442958,513.49273 C943.346943,504.443367 964.616369,501.56221 985.246578,505.256271 L1025.00252,512.375 L1025.00252,512.375 C991.205611,748.612953 859.775459,919.15462 630.712066,1024 C244.864308,1027 512.5,1016.217 189.269886,934.217004 C62.8671409,744.135303 0.107404339,603.521301 0.990676705,512.375 Z" id="Rectangle" fill-opacity="0.35" fill="#0A87F5" fill-rule="nonzero"></path>
                <rect id="Background" stroke="#E6E6E6" stroke-width="50" x="1" y="0" width="1024" height="1024" rx="512"></rect>
                <path d="M674.125,290 C687.11875,290 697.66225,301.026125 697.871821,313.981822 L697.875,314.375 L697.875,488.125 C697.875,488.401142 698.098858,488.625 698.375,488.625 L735,488.625 L735,488.625 C748.254834,488.625 759,499.370166 759,512.625 C759,525.879834 748.254834,536.625 735,536.625 L698.375,536.625 C698.098858,536.625 697.875,536.848858 697.875,537.125 L697.875,709.375 L697.875,709.375 C697.875,722.36875 688.686562,732.299688 675.767619,732.497007 L675.375,732.5 L672.875,732.5 C662.416016,732.5 654.985138,726.443787 647.601574,717.908311 L647.25,717.5 L505.95914,536.816999 C505.864376,536.695815 505.719104,536.625 505.565267,536.625 L376.5,536.625 C376.223858,536.625 376,536.848858 376,537.125 L376,709.375 L376,709.375 C376,722.36875 365.586437,733.524813 352.036555,733.75 L351.625,733.75 C338.63125,733.75 328.08775,722.723875 327.878179,709.768178 L327.875,709.375 L327.875,537.125 C327.875,536.848858 327.651142,536.625 327.375,536.625 L291,536.625 L291,536.625 C277.745166,536.625 267,525.879834 267,512.625 C267,499.370166 277.745166,488.625 291,488.625 L327.375,488.625 C327.651142,488.625 327.875,488.401142 327.875,488.125 L327.875,315.625 L327.875,315.625 C327.875,302.63125 338.901125,291.475188 351.856822,291.253366 L352.25,291.25 L359.125,291.25 C370.028846,291.25 376.822781,296.534172 383.490257,304.826256 L384.125,305.625 L527.470859,488.433525 C527.565639,488.554399 527.710718,488.625 527.86432,488.625 L649.25,488.625 C649.526142,488.625 649.75,488.401142 649.75,488.125 L649.75,314.375 L649.75,314.375 C649.75,301.38125 660.163562,290.225188 673.713445,290 L674.125,290 Z M649.25,536.625 L566.287451,536.625 C566.011308,536.625 565.787451,536.848858 565.787451,537.125 C565.787451,537.236864 565.824963,537.345497 565.893989,537.433525 L648.856538,643.235569 C649.026932,643.452872 649.341222,643.4909 649.558525,643.320506 C649.679399,643.225725 649.75,643.080647 649.75,642.927044 L649.75,537.125 C649.75,536.848858 649.526142,536.625 649.25,536.625 Z M376,372.076085 L376,488.125 C376,488.401142 376.223858,488.625 376.5,488.625 L467.248285,488.625 C467.524427,488.625 467.748285,488.401142 467.748285,488.125 C467.748285,488.013364 467.710925,487.904939 467.642157,487.816999 L376.893872,371.768084 C376.723768,371.550554 376.409528,371.512108 376.191999,371.682213 C376.070815,371.776976 376,371.922249 376,372.076085 Z" id="Shape" fill="url(#linearGradient-1)" fill-rule="nonzero"></path>
            </g>
        </g>
    </g>
</svg>
